src/images/single-assets/WFUSE.svg

<svg xmlns="http://www.w3.org/2000/svg" width="484" height="483" fill="none"><circle cx="242.057" cy="241.159" r="241.159" fill="#FFF"/><path fill="#010101" d="m184.543 100.393 55.127-31.835a5.1 5.1 0 0 1 5.087 0l145.289 83.883a5.12 5.12 0 0 1 2.551 4.393l.196 57.692a5.08 5.08 0 0 1-2.551 4.423l-55.051 31.79c-3.381 1.963-7.623-.483-7.638-4.392l-.181-51.776a5.09 5.09 0 0 0-2.551-4.393l-140.278-80.969c-3.396-1.962-3.396-6.853 0-8.816M148.924 361.714l-55.111-31.82a5.06 5.06 0 0 1-2.551-4.407V157.721c0-1.811.966-3.487 2.536-4.408l49.873-29.027a5.06 5.06 0 0 1 5.103 0l55.051 31.79c3.381 1.962 3.396 6.838.015 8.815l-44.742 26.039a5.08 5.08 0 0 0-2.535 4.408v161.984c0 3.924-4.242 6.37-7.639 4.408zM392.841 261.829v63.641a5.06 5.06 0 0 1-2.551 4.408L245.001 413.76a5.07 5.07 0 0 1-5.072 0l-50.07-28.68a5.1 5.1 0 0 1-2.566-4.423v-63.565c0-3.91 4.227-6.355 7.623-4.423l44.923 25.737a5.11 5.11 0 0 0 5.071 0l140.278-80.999c3.396-1.963 7.638.483 7.638 4.407z"/></svg>

<svg width="484" height="483" viewBox="0 0 484 483" fill="none" xmlns="http://www.w3.org/2000/svg">
<circle cx="242.057" cy="241.159" r="241.159" fill="#FFFFFF"/>
<path d="M184.543 100.393L239.67 68.5582C241.24 67.6525 243.187 67.6525 244.757 68.5582L390.046 152.441C391.616 153.347 392.582 155.022 392.597 156.834L392.793 214.526C392.793 216.353 391.827 218.044 390.242 218.949L335.191 250.739C331.81 252.702 327.568 250.256 327.553 246.347L327.372 194.571C327.372 192.76 326.391 191.084 324.821 190.178L184.543 109.209C181.147 107.247 181.147 102.356 184.543 100.393Z" fill="#010101"/>
<path d="M148.924 361.714L93.8128 329.894C92.2278 328.989 91.2617 327.313 91.2617 325.487V157.721C91.2617 155.91 92.2278 154.234 93.7977 153.313L143.671 124.286C145.256 123.365 147.204 123.365 148.774 124.286L203.825 156.076C207.206 158.038 207.221 162.914 203.84 164.891L159.098 190.93C157.529 191.836 156.563 193.511 156.563 195.338V357.322C156.563 361.246 152.321 363.692 148.924 361.73V361.714Z" fill="#010101"/>
<path d="M392.841 261.829V325.47C392.841 327.296 391.875 328.972 390.29 329.878L245.001 413.76C243.431 414.666 241.499 414.666 239.929 413.76L189.859 385.08C188.274 384.174 187.293 382.483 187.293 380.657V317.092C187.293 313.182 191.52 310.737 194.916 312.669L239.839 338.406C241.408 339.312 243.341 339.297 244.91 338.406L385.188 257.407C388.584 255.444 392.826 257.89 392.826 261.814L392.841 261.829Z" fill="#010101"/>
</svg>
